assets/images/icons/set1/phone.svg

<svg xmlns="http://www.w3.org/2000/svg" width="28" height="28" xmlns:xlink="http://www.w3.org/1999/xlink" id="set1-phone">
  <use xlink:href="#a11" transform="translate(8 8)"/>
  <defs>
    <path id="a11" fill-rule="evenodd" d="M2.73846 0c1.33442 0 2.43177.997803 2.49842 2.27161.03479.66601-.19861 1.29785-.65583 1.78015-.18359.19385-.39837.35461-.63238.47583l3.19141 3.51367c.23339-.2251.5238-.40808.85858-.53772.71942-.27832 1.52942-.2561 2.16664.05884.8412.41577 1.2635 1.37341 1.2336 2.06347C11.3395 11.0016 10.3303 12 8.99945 12c-2.74499 0-4.95898-.8521-6.58142-2.53198C.54425 7.52698-.0575562 4.94934.00427246 3.18481.0828857.942017 1.19104.223145 2.10724.0144043 2.15106.0053711 2.19543 0 2.24048 0h.49798zm.10138 3.59998c.3324 0 .64142-.13318.87061-.37439.22858-.2406.34503-.55738.32757-.89038-.03295-.62525-.61614-1.13465-1.30017-1.13465h-.4284c-.32038.08045-1.04822.35877-1.10639 2.02735-.05102 1.44909.46259 3.7351 2.07721 5.40722 1.38721 1.43637 3.3114 2.16537 5.71796 2.16537.6864 0 1.16887-.4925 1.20067-1.22579.0114-.2627-.1836-.74756-.56645-.93653-.33539-.16565-.79621-.17224-1.2024-.0144-.32818.12659-.57299.34375-.67199.59582-.07563.19312-.24604.3335-.45002.37073-.13275.02332-.26727.0022-.38342-.05737-.06286-.03223-.1203-.07581-.16919-.12976L2.39526 4.60315c-.1596-.17517-.20044-.42896-.10443-.64563.09662-.21777.3114-.35754.54901-.35754z"/>
  </defs>
</svg>

<svg width="28" height="28" viewBox="0 0 28 28" version="1.1" xmlns="http://www.w3.org/2000/svg" xmlns:xlink="http://www.w3.org/1999/xlink">
<title>H&#172;&#140;</title>
<desc>Created using Figma</desc>
<g id="Canvas" transform="translate(-756 -1774)">
<g id="Icon/Presta/White/Arrow Down">
<g id="Icon/Presta/White/Phone">
<g id="XMLID_1122_">
<use xlink:href="#path0_fill" transform="translate(764 1782)" fill="#202A37"/>
</g>
</g>
</g>
</g>
<defs>
<path id="path0_fill" fill-rule="evenodd" d="M 2.73846 0C 4.07288 0 5.17023 0.997803 5.23688 2.27161C 5.27167 2.93762 5.03827 3.56946 4.58105 4.05176C 4.39746 4.24561 4.18268 4.40637 3.94867 4.52759L 7.14008 8.04126C 7.37347 7.81616 7.66388 7.63318 7.99866 7.50354C 8.71808 7.22522 9.52808 7.24744 10.1653 7.56238C 11.0065 7.97815 11.4288 8.93579 11.3989 9.62585C 11.3395 11.0016 10.3303 12 8.99945 12C 6.25446 12 4.04047 11.1479 2.41803 9.46802C 0.54425 7.52698 -0.0575562 4.94934 0.00427246 3.18481C 0.0828857 0.942017 1.19104 0.223145 2.10724 0.0144043C 2.15106 0.00537109 2.19543 0 2.24048 0L 2.73846 0ZM 2.83984 3.59998C 3.17224 3.59998 3.48126 3.4668 3.71045 3.22559C 3.93903 2.98499 4.05548 2.66821 4.03802 2.33521C 4.00507 1.70996 3.42188 1.20056 2.73785 1.20056L 2.30945 1.20056C 1.98907 1.28101 1.26123 1.55933 1.20306 3.22791C 1.15204 4.677 1.66565 6.96301 3.28027 8.63513C 4.66748 10.0715 6.59167 10.8005 8.99823 10.8005C 9.68463 10.8005 10.1671 10.308 10.1989 9.57471C 10.2103 9.31201 10.0153 8.82715 9.63245 8.63818C 9.29706 8.47253 8.83624 8.46594 8.43005 8.62378C 8.10187 8.75037 7.85706 8.96753 7.75806 9.2196C 7.68243 9.41272 7.51202 9.5531 7.30804 9.59033C 7.17529 9.61365 7.04077 9.59253 6.92462 9.53296C 6.86176 9.50073 6.80432 9.45715 6.75543 9.4032L 2.39526 4.60315C 2.23566 4.42798 2.19482 4.17419 2.29083 3.95752C 2.38745 3.73975 2.60223 3.59998 2.83984 3.59998Z"/>
</defs>
</svg>
